X:1
T:Anglais efter Per Nilsson Dahlberg
T:(SvL Skne nr. 182)
S:efter Per Nilsson Dahlberg
S:Svenska Ltar
R:Anglais
Z:Patrik Mnsson, 2009-01-03
O:Nym, Skne
M:2/4
L:1/16
K:Bb
|: (ba) | b2(BA) B2(ba) | g2(ED) E2(gf) | (ed)cB (B{cB}A)GF |
FeAc B2 :: (FE) | (DF)Bd (ce)df | 
(=ef)gf (dB)AB | (DF)Bd (c_e)(ef) | (fe)cA B2 :|
